X:1
T:Álvastakkur
C:Kristian Blak, arr. Laurel North
R:Waltz
M:3/4
K:Gmaj
GA |: B2 BA  Ge   | d2  dB EB    |  A2 AG Gd     |  B4 Bd    |
      e  g2  e2 A | BA  G2 GA    |  B  d2 B  AG  |1 A3 AGA :|2 A3 ABA  ||
   |: Gg g2  e2   | dB  B3 A     |  B2 d2 eg     |  a3 bag  |  ed B3 A  |
      B  ^c3 BA   | de A2 EG |1 G  z  z2 BA :|2 G6       |]

